!!!COM: Palestrina, Giovanni Perluigi da
!!!OPR: Missa De beata virgine (1570)
!!!OMD: Credo
!!!OTL: Et vitam
**kern	**kern	**kern	**kern	**kern	**kern
*Ibass	*Itenor	*Itenor	*Icalto	*Icant	*Icant
!Bassus	!Tenor 2	!Tenor 1	!Altus	!Cantus 2	!Cantus 1
*clefF4	*clefGv2	*clefGv2	*clefG2	*clefG2	*clefG2
*k[b-]	*k[b-]	*k[b-]	*k[b-]	*k[b-]	*k[b-]
*?:X	*?:X	*?:X	*?:X	*?:X	*?:X
*M4/2	*M4/2	*M4/2	*M4/2	*M4/2	*M4/2
=207	=207	=207	=207	=207	=207
0G	0d	1G	1g	1b	1dd
.	.	2r	2r	1dd	1b
.	.	2G	2g	.	.
=208	=208	=208	=208	=208	=208
1C	1c	2.G	1g	1ee	1cc
.	.	4A	.	.	.
1G	[1d	4B	1g	1dd	2.b
.	.	4A	.	.	.
.	.	4B	.	.	.
.	.	4c	.	.	4a
=209	=209	=209	=209	=209	=209
1G	2d]	1d	2.g	1b	2g
.	2B	.	.	.	2b
.	.	.	4f	.	.
1A	[1e	2c	2e	1cc	4a
.	.	.	.	.	4b
.	.	2A	[2a	.	4cc
.	.	.	.	.	4dd
=210	=210	=210	=210	=210	=210
1E	1e]	1B	2a]	1b	1ee
.	.	.	2g#	.	.
1r	1A	2.c	1a	1a	1ee
.	.	4d	.	.	.
=211	=211	=211	=211	=211	=211
1.A	2r	0e	2r	1a	2.cc
.	4A	.	1cc	.	.
.	4B	.	.	.	4b
.	4c	.	.	1ee	2a
.	4A	.	.	.	.
2G	2e	.	2b	.	2b
=212	=212	=212	=212	=212	=212
2.F	2A	2r	2.a	1.ff	1cc
.	1c	1A	.	.	.
4E	.	.	4g	.	.
2D	.	.	2f	.	1dd
2D	2B	2F	2d	2ff	.
=213	=213	=213	=213	=213	=213
1C	4c	2G	1e	1ee	0g
.	4d	.	.	.	.
.	4e	4c	.	.	.
.	4f	4d	.	.	.
2r	2g	4e	4c	1ee	.
.	.	4f	4d	.	.
[2c	2c	2g	4e	.	.
.	.	.	4f	.	.
=214	=214	=214	=214	=214	=214
2c]	2.d	1G	1g	1dd	2r
2B	.	.	.	.	2gg
.	4e	.	.	.	.
2.A	4f	2r	2a	1cc	2ff
.	4g	.	.	.	.
.	[2a	[2c	2e	.	2ee
4G	.	.	.	.	.
=215	=215	=215	=215	=215	=215
2F	2a]	2c]	2f	1dd	1dd
2G	4g	2B	2d	.	.
.	4f	.	.	.	.
1C	4e	2c	2g	1ee	2cc
.	4d	.	.	.	.
.	4c	2G	2e	.	[2gg
.	4B	.	.	.	.
=216	=216	=216	=216	=216	=216
1D	2.A	1d	0a	1dd	2gg]
.	.	.	.	.	2ff
.	4B	.	.	.	.
1A	2c	2e	.	1cc	4ee
.	.	.	.	.	4dd
.	2A	4c	.	.	4ee
.	.	4d	.	.	4ff
=217	=217	=217	=217	=217	=217
1E	2.B	4e	1g	1b	2gg
.	.	4f	.	.	.
.	.	4g	.	.	1ee
.	4c	4e	.	.	.
1r	1d	1f	2r	1a	.
.	.	.	[2a	.	2dd
=218	=218	=218	=218	=218	=218
0E	1B	[0e	2a]	0b	[0ee
.	.	.	4g	.	.
.	.	.	4f#	.	.
.	2.e	.	1g#	.	.
.	4d	.	.	.	.
=219	=219	=219	=219	=219	=219
0A	2.c	1e_	0a	0cc	1ee_
.	4B	.	.	.	.
.	1A	1e_	.	.	1ee_
=220	=220	=220	=220	=220	=220
0E	0B	0e]	0g#	0b	0ee]
==	==	==	==	==	==
*-	*-	*-	*-	*-	*-
!!!CDT: 1525/^1526/-1594/2/2
!!!OCY: Italia
!!!AGN: Mass (Paraphrase)
!!!AST: renaissance, vocal
!!!ASW: Gregorian Mass
!!!PWK: Masses, Book 3
!!!RNB: Cadence finals: G,D,C,E,F
!!!YOR: Le Opere Complete, v. 6, p. 175
!!!YOO: Rome, Italy: Fratelli Scalera
!!!END: 1992//
!!!EED: John Miller
!!!YEC: Copyright 2000, John Miller
!!!YEN: United States of America
!!!YEM: Rights to all derivative electronic formats reserved.
!!!YEM: Refer to licensing agreement for further details.
!!!YEM: This file must be accompanied by the licensing agreement.
!!!YEM: A copy of the licensing agreement may be found at http://www.music-cog.ohio-state.edu/HumdrumDatabases/Palestrina/license.txt
!!!EMD: converted to Humdrum by Bret Aarden
